src/main/resources/icons/RubyIcons/icons/rspec/rspec_runConfigurations.svg

<svg xmlns="http://www.w3.org/2000/svg" width="16" height="16" viewBox="0 0 16 16"><rect id="frame" width="16" height="16" fill="none"/><g fill="none" fill-rule="evenodd"><path fill="#F26522" d="M2 8l5-5v10z"/><path fill="#62B543" d="M14 8L9 3v5z"/><path fill="#231F20" fill-opacity=".7" d="M11 15h4v-5h-4v5zm-1 1h6V9h-6v7z"/><path fill="#231F20" fill-opacity=".7" d="M12 12h2v-1h-2z"/><path fill="#231F20" fill-opacity=".7" d="M12 14h2v-1h-2z"/></g></svg>

<svg xmlns="http://www.w3.org/2000/svg" width="16" height="16" viewBox="0 0 16 16">
  <g fill="none" fill-rule="evenodd">
    <polygon fill="#F26522" points="2 8 7 3 7 13"/>
    <polygon fill="#62B543" points="9 8 14 3 14 8" transform="matrix(-1 0 0 1 23 0)"/>
    <path fill="#231F20" fill-opacity=".7" d="M11,15 L15,15 L15,10 L11,10 L11,15 Z M10,16 L16,16 L16,9 L10,9 L10,16 Z"/>
    <polygon fill="#231F20" fill-opacity=".7" points="12 12 14 12 14 11 12 11"/>
    <polygon fill="#231F20" fill-opacity=".7" points="12 14 14 14 14 13 12 13"/>
  </g>
</svg>
